www/assets/icons/done_all.svg

<svg width="24" height="24" viewBox="0 0 24 24" xmlns="http://www.w3.org/2000/svg" fill='currentColor'><path d="M17.965 6.70492L16.555 5.29492L10.215 11.6349L11.625 13.0449L17.965 6.70492ZM22.205 5.29492L11.625 15.8749L7.445 11.7049L6.035 13.1149L11.625 18.7049L23.625 6.70492L22.205 5.29492ZM0.375 13.1149L5.965 18.7049L7.375 17.2949L1.795 11.7049L0.375 13.1149Z"/></svg>

<svg xmlns="http://www.w3.org/2000/svg" width="24" height="24" viewBox="0 0 24 24" fill='currentColor'><path d="m17.965 6.705-1.41-1.41-6.34 6.34 1.41 1.41zm4.24-1.41-10.58 10.58-4.18-4.17-1.41 1.41 5.59 5.59 12-12zm-21.83 7.82 5.59 5.59 1.41-1.41-5.58-5.59z"/></svg>
